X: 36563
T: Shack A Lack
R: jig
M: 6/8
K: Bminor
M:7/8
B2B2 BAF|B2B2 ABd|B2B2 BAF|1 [M:6/8] GBd fed:|2 [M:7/8] G2f2 edf ]|
|:a2a2 fed|B2A2 B/c/df|a2a2 fed|1 B2f2 edf:|2 B2f2 ecA||

